X:1
T:Title
%%score ( 1 2 ) ( 3 4 )
L:1/8
Q:1/4=105
M:6/8
K:Bb
V:1 treble nm="Grand Piano, Soprano"
V:2 treble 
V:3 bass nm="Choir Pad, Chongqing, 76.76 D"
V:4 bass 
V:1
 z3 z .F2 | [EA] [DB]2- [DB] [DF]2 | [DB] [EA]2 [EG] [EA]2 | [EF] [DB]2- [DB]2- [DB]/ z/ | %4
 [DB] [Ec]2 [Ec]AG | [EF] [DB]2- [DB] [Fd]2 | [Ge] [Fd]2 [DB][Ec][Fd] | %7
 [Ec] [DB]2- [DB]2- [DB]/ z/ | [DB] [Ec]2 [Ec][Ec][Fd] | [Ec] [DB]2 [Fd] [DF]2 | %10
 [FB] [EA]2 [EA]AG | [EA] [DB]2- [DB]2- [DB]/ z/ | [DF] [EG]2 [EG][GB][FA] | [EG] F2 B [DF]2 | %14
 [Ge] [Fd]2 [DB][Ec][Fd] | [Ec] B2- [EB-] [DB]2- | [DB]6 |] %17
V:2
 [DF] [DF]2 [DF]E-[EG] | x6 | x6 | x6 | z3 z E2 | x6 | x6 | x6 | x6 | x6 | z3 z E2 | x6 | x6 | %13
 z D2- D/ z/ z z | x6 | z D2 z3 | x6 |] %17
V:3
 [B,,B,] [B,,B,]2 [B,,B,] [F,C]2 | [F,C] [B,,B,]2- [B,,B,] [B,,B,]2 | [B,,B,] [F,C]2 [F,C] [F,C]2 | %3
 [F,C] [B,,B,]2- [B,,B,]2- [B,,B,]/ z/ | [B,,B,] [F,A,]2 [F,A,] [F,C]2 | %5
 [F,C] [B,,B,]2- [B,,B,] [B,,B,]2 | [E,B,] [F,B,]2 [F,B,] [F,A,]2 | %7
 [F,A,] [B,,B,]2- [B,,B,]2- [B,,B,]/ z/ | [B,,F,] [F,A,]2 [F,A,] [F,A,]2 | %9
 [F,A,] [B,,B,]2- [B,,B,] [B,,B,]2 | [D,B,] [F,C]2 [F,C] [F,C]2 | %11
 [F,C] [B,,B,]2- [B,,B,]2- [B,,B,]/ z/ | [B,,B,] [E,B,]2 [E,B,] [E,B,]2 | %13
 [E,B,] [B,,B,]2- [B,,B,] [B,,B,]2 | [E,B,] [F,B,]2 [F,B,] [F,A,]2 | [F,A,] B,2 G, F,2- | F,6 |] %17
V:4
 x6 | x6 | x6 | x6 | x6 | x6 | x6 | x6 | x6 | x6 | x6 | x6 | x6 | x6 | x6 | z B,,2- B,,3- | B,,6 |] %17

